src/assets/icon-20-donate.svg

<?xml version="1.0" encoding="UTF-8"?>
<svg width="20px" height="20px" viewBox="0 0 20 20" version="1.1" xmlns="http://www.w3.org/2000/svg" xmlns:xlink="http://www.w3.org/1999/xlink">
    <g id="Assets" stroke="none" stroke-width="1" fill="none" fill-rule="evenodd">
        <g id="icon-20-donate" fill-rule="nonzero" fill="#000000">
            <path d="M6.57309364,17.9050336 C6.39154481,17.9592383 6.19917239,17.9883524 6,17.9883524 L4,17.9883524 C2.8954305,17.9883524 2,17.0929219 2,15.9883524 L2,11 C2,9.8954305 2.8954305,9 4,9 L6,9 C6.00140521,9 6.00281009,9.00000145 6.00421462,9.00000435 L6.00421462,8.80743927 C6.00421462,8.66735889 6.03364489,8.52884117 6.09059847,8.40086146 L9.07447574,1.69582634 C9.20405692,1.40464603 9.46467454,1.19267258 9.7761457,1.12512281 C12.1731289,0.605281212 13.3175347,1.7472362 13.4406816,3.77135356 C13.4543837,3.99656943 13.457068,4.17083609 13.4570317,4.53325111 C13.4570304,4.54630162 13.4570304,4.54630162 13.4535403,4.64270266 L13.3132629,6.31743147 L15.4481862,6.31743147 C18.1106795,6.31743147 19.5863336,8.59561669 18.9036975,11.2957988 L17.8742598,15.0047165 C17.8527491,15.0822167 17.8219669,15.1568388 17.7825807,15.2269653 C16.8437855,16.898472 15.5090248,18.0024822 13.4187485,18.0024822 L7.00421462,18.0024822 C6.84983934,18.0024822 6.7036343,17.9675013 6.57309364,17.9050336 Z M16.9706033,10.7833461 C17.3471715,9.29321542 16.7151247,8.31743147 15.4481862,8.31743147 L12.2259999,8.31743147 C11.6407908,8.31743147 11.1806427,7.81712943 11.2294895,7.23396252 L11.4570299,4.55923372 C11.457064,4.21084292 11.4548069,4.06430798 11.4443729,3.89280864 C11.3989688,3.14651984 11.3018841,2.92334684 10.6861189,2.99342971 L8.00421462,9.01990498 L8.00421462,16.0024822 L13.4187485,16.0024822 C14.5965464,16.0024822 15.3679946,15.3944835 15.9806989,14.3488565 L16.9706033,10.7833461 Z M4,11 L4,15.9883524 L6,15.9883524 L6,11 L4,11 Z" id="Combined-Shape"></path>
        </g>
    </g>
</svg>

<svg width="20" height="20" xmlns="http://www.w3.org/2000/svg"><path d="M6.573 17.905a2 2 0 0 1-.573.083H4a2 2 0 0 1-2-2V11a2 2 0 0 1 2-2h2.004v-.193a1 1 0 0 1 .087-.406l2.983-6.705a1 1 0 0 1 .702-.57c2.397-.52 3.542.621 3.665 2.645.013.226.016.4.016.762l-.003.11-.14 1.674h2.134c2.663 0 4.138 2.279 3.456 4.979l-1.03 3.709a1 1 0 0 1-.091.222c-.94 1.671-2.274 2.775-4.364 2.775H7.004a.996.996 0 0 1-.43-.097zm10.398-7.122c.376-1.49-.256-2.466-1.523-2.466h-3.222a1 1 0 0 1-.997-1.083l.228-2.675c0-.348-.002-.495-.013-.666-.045-.746-.142-.97-.758-.9L8.004 9.02v6.982h5.415c1.178 0 1.949-.608 2.562-1.653l.99-3.566zM4 11v4.988h2V11H4z" fill-rule="nonzero" fill="#000"/></svg>
